svgs/myne.svg

<svg width="192" height="192" viewBox="0 0 192 192" fill="none" xmlns="http://www.w3.org/2000/svg">
<path d="M163.155 158.203H100.019C97.0538 155.238 97.0538 144.395 100.019 141.43H163.155C165.595 138.991 165.595 130.073 163.155 127.634H36.8821C29.0393 135.476 29.0393 164.157 36.8821 172H163.155C165.595 169.561 165.595 160.642 163.155 158.203Z" stroke="black" stroke-width="8" stroke-linecap="round" stroke-linejoin="round"/>
<path d="M156.934 141.43V158.203" stroke="black" stroke-width="8" stroke-linecap="round" stroke-linejoin="round"/>
<path d="M88.3142 127.634C80.4714 135.476 80.4714 164.157 88.3142 172" stroke="black" stroke-width="8" stroke-linecap="round" stroke-linejoin="round"/>
<path d="M32.5926 101.02H96.228C98.8096 103.601 98.8096 113.041 96.228 115.622H32.5926C30.4693 117.746 30.4693 125.51 32.5926 127.634H159.864C166.692 120.806 166.692 95.8363 159.864 89.0084H32.5926C30.4693 91.1317 30.4693 98.8962 32.5926 101.02Z" stroke="black" stroke-width="8" stroke-linecap="round" stroke-linejoin="round"/>
<path d="M38.0085 115.623V101.02" stroke="black" stroke-width="8" stroke-linecap="round" stroke-linejoin="round"/>
<path d="M106.418 127.634C113.246 120.806 113.246 95.8363 106.418 89.0084" stroke="black" stroke-width="8" stroke-linecap="round" stroke-linejoin="round"/>
<path d="M102.154 44.6228C102.154 44.6228 105.685 41.9929 108.688 41.9929C121.626 41.9929 127.605 49.1751 129.201 60.418C131.303 75.2224 125.314 83.2667 116.536 86.385C108.256 89.3272 92.0289 88.4487 85.2816 85.1394C77.8909 81.5148 72.9252 72.2666 75.9079 60.7524C79.3521 47.4555 86.196 38.795 102.154 44.6228Z" stroke="black" stroke-width="8" stroke-linecap="round" stroke-linejoin="round"/>
<path d="M90.6168 27.9652C90.6168 27.9652 95.4169 40.4982 102.154 44.6232" stroke="black" stroke-width="8" stroke-linecap="round" stroke-linejoin="round"/>
<path d="M96.7966 37.657C96.7966 37.657 92.1501 18.0864 114.084 20.1528C114.084 20.1528 123.414 38.5565 96.7966 37.657Z" stroke="black" stroke-width="8" stroke-linecap="round" stroke-linejoin="round"/>
</svg>

<svg width="192" height="192" viewBox="0 0 192 192" fill="none" xmlns="http://www.w3.org/2000/svg"><path d="M163.155 158.203h-63.136c-2.965-2.965-2.965-13.808 0-16.773h63.136c2.44-2.439 2.44-11.357 0-13.796H36.882c-7.843 7.842-7.843 36.523 0 44.366h126.273c2.44-2.439 2.44-11.358 0-13.797ZM156.934 141.43v16.773" stroke="#000" stroke-width="8" stroke-linecap="round" stroke-linejoin="round"/><path d="M88.314 127.634c-7.843 7.842-7.843 36.523 0 44.366M32.593 101.02h63.635c2.582 2.581 2.582 12.021 0 14.602H32.593c-2.124 2.124-2.124 9.888 0 12.012h127.271c6.828-6.828 6.828-31.798 0-38.626H32.593c-2.124 2.124-2.124 9.888 0 12.012ZM38.008 115.623V101.02" stroke="#000" stroke-width="8" stroke-linecap="round" stroke-linejoin="round"/><path d="M106.418 127.634c6.828-6.828 6.828-31.798 0-38.626M102.154 44.623s3.531-2.63 6.534-2.63c12.938 0 18.917 7.182 20.513 18.425 2.102 14.804-3.887 22.849-12.665 25.967-8.28 2.942-24.507 2.064-31.254-1.246-7.391-3.624-12.357-12.872-9.374-24.387 3.444-13.297 10.288-21.957 26.246-16.13Z" stroke="#000" stroke-width="8" stroke-linecap="round" stroke-linejoin="round"/><path d="M90.617 27.965s4.8 12.533 11.537 16.658" stroke="#000" stroke-width="8" stroke-linecap="round" stroke-linejoin="round"/><path d="M96.797 37.657s-4.647-19.57 17.287-17.504c0 0 9.33 18.404-17.287 17.504Z" stroke="#000" stroke-width="8" stroke-linecap="round" stroke-linejoin="round"/></svg>
